X:113
T:Reels simple chords 285
M:3/4
L:1/8
K:D
A2 [dD,F,A,]c df | ec AG [FD,F,A,]A | dc d2 ef | [gG,B,D]d Bg fd | Af [eE,,]d cB |
A2 (3ABc [dD,F,A,]c | df ec AG | [FD,F,A,]A dc d2 | ef [gG,B,DE]B ed |
ce Ac [d2D,2F,2A,2] | f2 d2 A2 | [dD,F,A,]c df ec | AG [FD,F,A,]A dc |
d2 ef [gG,B,D]d | Bg fd Af | [eE,,]d cB A2 | (3ABc [dD,F,A,]c df |
ec AG [FD,F,A,]A | dc d2 ef | [gG,B,DE]B ed ce | Ac [d2D,2F,2A,2] f2 |
d2 fg [a2F,,2] | fa gf eg | [fD,F,A,]d AG FA | df [g2G,2B,2D2] Bg |
f2 Af [eE,,]d | cB A2 fg | [aF,,]A fa gf | eg [fD,F,A,]d AG |
FA df [gG,B,DE]B | ed ce Ac | [d2D,2F,2A,2] f2 d2 | fg [a2F,,2] fa |
gf eg [fD,F,A,]d | AG FA df | [g2G,2B,2D2] Bg f2 | Af [eE,,]d cB |
A2 fg [aF,,]A | fa gf eg | [fD,F,A,]d AG FA | df [gG,B,DE]B ed |
ce Ac [d2D,2F,2A,2] | f2 d2 |


